X:334
T:Neil Gow’s Farewell to Whiskey. RHG.334
T:Farewell to Whiskey,aka. RHG.334
R:air
C:Neil Gow
S:Rev.R.Harrison’s MS,c1815,Cumbria
O:England
A:Temple Sowerby,Cumbria
Z:vmp.Simon Wilson. Review PJH, 2008.
M:2/4
L:1/16
Q:1/4=100
K:D
A2|d4 d2cd|e4 B2Bd|A2d2 edef|a2gf a4|!
b3d’ a3d’|f2ed e3f|A2d2 fede|f2d2 d2:|!
fg|a3f d’4|f4 (gfed)|e4 f2g2|a3f d’4|a3b (d’3d’)|!
a4 b3d’|a3d’ fede|f4 A2d2|fedc e4|f2d2 d2|]

